img/mobile-images/logo-mobile.svg

<svg width="190" height="39" viewBox="0 0 190 39" fill="none" xmlns="http://www.w3.org/2000/svg">
<path d="M6.07 21.72V19.46C12.7536 18.5423 19.4937 18.0979 26.24 18.13C26.24 18.73 26.24 19.34 26.18 19.95C28.0976 19.099 30.1128 18.4877 32.18 18.13C30.8625 14.722 28.4618 11.8412 25.3471 9.93086C22.2324 8.02051 18.5764 7.1864 14.9414 7.55683C11.3064 7.92726 7.89379 9.48172 5.22852 11.9811C2.56325 14.4804 0.792969 17.7863 0.190001 21.39L6.07 21.72Z" fill="#FDC305"/>
<path d="M27.24 25.23C26.08 26.51 25.85 26.43 25.85 28.68C25.85 29.59 25.85 33.58 25.85 37.86C28.1425 36.346 30.0245 34.2879 31.328 31.8694C32.6315 29.4509 33.3158 26.7474 33.32 24C33.3068 22.9591 33.1997 21.9216 33 20.9C30.9282 22.1295 28.9967 23.5814 27.24 25.23Z" fill="#FDC305"/>
<path d="M6.36 26.72C6.36 26.72 2.57 25.28 1.17 24.89C0.787067 24.7693 0.396097 24.6757 0 24.61C0.108395 27.496 0.965588 30.3041 2.48739 32.7586C4.00919 35.2131 6.14326 37.2296 8.68 38.61L6.36 26.72Z" fill="#FDC305"/>
<path d="M26.29 18.12C26.3307 12.5986 25.862 7.08529 24.89 1.65C24.89 1.65 24.75 0.360004 24 1.41C23.4109 2.65814 23.0067 3.98539 22.8 5.35C18.5418 5.07577 14.2675 5.18958 10.03 5.69C9.24 3 7.85 1.75 7.18 2C6.51 2.25 6.46 5.31 6.46 5.31L6.13 19.41C12.8113 18.506 19.548 18.0749 26.29 18.12Z" fill="#F06351"/>
<path d="M12.41 15C12.41 14.91 13.41 15.68 13.82 15.92C14.23 16.16 14.43 16.34 14.43 16.51C14.43 16.68 14.16 16.85 13.8 16.85C13.44 16.85 12.89 16.73 12.8 16.58H13.74H14.03C13.4207 16.1294 12.8757 15.5978 12.41 15Z" fill="black"/>
<path d="M19.89 15.11L18.8 16.44C18.8 16.5 18.63 16.79 18.98 16.74C19.3942 16.6783 19.8023 16.5812 20.2 16.45C20.31 16.45 20.27 16.26 20.09 16.28C19.91 16.3 19.4 16.33 19.09 16.39L19.93 15.13C19.93 15.13 20 15 19.89 15.11Z" fill="black"/>
<path d="M16.75 21.2C17.2135 20.9958 17.5967 20.6443 17.84 20.2C18.12 19.55 17.84 19.29 17.4 19.2C16.7979 19.0902 16.1765 19.2116 15.66 19.54C15.27 19.9 15.32 20.26 15.61 20.54C15.9613 20.8062 16.3442 21.0279 16.75 21.2Z" fill="black"/>
<path d="M16.35 22.45C16.2379 22.6785 16.0816 22.8825 15.89 23.05C15.6052 23.2791 15.2551 23.4122 14.89 23.43C14.3638 23.472 13.8406 23.3189 13.42 23C13.2222 22.8808 13.0436 22.7324 12.89 22.56C12.7895 22.4491 12.6669 22.3605 12.53 22.3C12.53 22.3 13.28 26.4 15.1 27.05C16.92 27.7 17.24 26.3 17.3 25.92C17.3601 24.7851 17.0742 23.6588 16.48 22.69C16.46 22.38 16.45 22.58 16.35 22.45Z" fill="#F06351"/>
<path d="M14.71 23.59C14.2453 23.5247 13.7989 23.3651 13.3982 23.1209C12.9975 22.8767 12.651 22.5531 12.38 22.17C12.3667 22.157 12.3561 22.1414 12.3489 22.1242C12.3417 22.1071 12.338 22.0886 12.338 22.07C12.338 22.0514 12.3417 22.0329 12.3489 22.0158C12.3561 21.9986 12.3667 21.983 12.38 21.97C12.393 21.9567 12.4086 21.9461 12.4258 21.9389C12.4429 21.9317 12.4614 21.928 12.48 21.928C12.4986 21.928 12.5171 21.9317 12.5342 21.9389C12.5514 21.9461 12.567 21.9567 12.58 21.97C13.0848 22.6642 13.843 23.1313 14.69 23.27C15.0217 23.245 15.3426 23.1413 15.6261 22.9674C15.9096 22.7934 16.1475 22.5544 16.32 22.27L16.46 22.08L16.56 22.29C16.56 22.29 16.93 23.05 17.56 23.09C18.19 23.13 18.61 22.68 19.17 21.81C19.183 21.7967 19.1986 21.7861 19.2158 21.7789C19.2329 21.7717 19.2514 21.768 19.27 21.768C19.2886 21.768 19.3071 21.7717 19.3242 21.7789C19.3414 21.7861 19.357 21.7967 19.37 21.81C19.4023 21.8306 19.4255 21.8629 19.4348 21.9C19.4441 21.9372 19.4388 21.9766 19.42 22.01C18.78 23.01 18.15 23.45 17.54 23.41C17.308 23.3763 17.0867 23.2903 16.8927 23.1587C16.6987 23.0271 16.5371 22.8531 16.42 22.65C16.2233 22.9245 15.9676 23.1514 15.6717 23.3141C15.3758 23.4767 15.0471 23.571 14.71 23.59Z" fill="black"/>
<path d="M26.24 19.92C24.4445 21.5437 22.7512 23.277 21.17 25.11C19.5986 26.9361 17.8238 28.5768 15.88 30C15.66 29.47 14.26 28.49 14.26 28.49C14.26 28.49 11.13 26.35 9.08 24.67C7.97414 23.7373 6.9287 22.7353 5.95 21.67L3.95 21.56C6.84018 25.7655 11.0702 28.8676 15.95 30.36C16.81 30.22 19.22 28.5 21.02 27.1C23.1389 25.2819 25.124 23.3134 26.96 21.21C27.4625 20.621 27.8493 19.9425 28.1 19.21C27 19.6 26.24 19.92 26.24 19.92Z" fill="#F06351"/>
<g clip-path="url(#clip0)">
<path d="M90.2645 29.5385C89.3696 28.2762 88.9253 26.7627 89 25.2308V18.8462C88.8916 17.2977 89.3081 15.7575 90.1855 14.4615C91.0548 13.4615 92.3983 13 94.374 13C96.3498 13 97.6143 13.4615 98.4045 14.3077C99.2626 15.3794 99.6846 16.7214 99.59 18.0769V19.6154H95.7175V17.8462C95.7488 17.3229 95.6681 16.799 95.4804 16.3077C95.3802 16.1094 95.2212 15.9448 95.024 15.8351C94.8269 15.7255 94.6005 15.6757 94.374 15.6923C93.8208 15.6923 93.4257 15.8462 93.2676 16.2308C93.0888 16.7773 93.0086 17.3499 93.0305 17.9231V26.1538C92.9888 26.71 93.0978 27.267 93.3466 27.7692C93.5047 28.1538 93.8999 28.3077 94.4531 28.3077C95.0063 28.3077 95.3224 28.1538 95.4804 27.7692C95.6601 27.2494 95.7405 26.7019 95.7175 26.1538V24.3077H99.59V25.8462C99.6704 27.2238 99.2508 28.5852 98.4045 29.6923C97.6143 30.6154 96.2707 31.0769 94.374 31.0769C92.4773 31 91.0548 30.5385 90.2645 29.5385Z" fill="#111111"/>
<path d="M104.253 13.2308H108.757L112.077 30.7692H108.441L107.809 27.0769H105.201L104.569 30.7692H100.854L104.253 13.2308ZM107.493 24.7692L106.545 17.9231L105.596 24.7692H107.493Z" fill="#111111"/>
<path d="M114.843 16.1539H112.156V13.2308H121.56V16.0769H118.873V30.7692H114.843V16.1539Z" fill="#111111"/>
<path d="M128.752 13.2308H135.707V15.0769H131.202V20.8462H134.837V22.6154H131.202V29.0769H135.707V30.8462H128.673V13.2308H128.752Z" fill="#111111"/>
<path d="M137.761 13.2308H139.5L144.637 24.8462V13.2308H146.692V30.7692H145.111L139.895 18.7692V30.7692H137.761V13.2308Z" fill="#111111"/>
<path d="M149.063 13.2308H156.017V15.0769H151.513V20.8462H155.148V22.6154H151.513V29.0769H156.017V30.8462H149.063V13.2308Z" fill="#111111"/>
<path d="M158.072 13.2308H161.707C163.137 13.1346 164.559 13.5144 165.738 14.3077C166.607 15 167.002 16.2308 167.002 17.8462C167.002 20.0769 166.291 21.4615 164.79 21.9231L167.318 30.6923H164.869L162.498 22.4615H160.522V30.6923H157.993V13.2308H158.072ZM161.549 20.7692C162.364 20.8346 163.176 20.6165 163.841 20.1539C164.315 19.7692 164.552 19 164.552 17.8462C164.574 17.273 164.494 16.7004 164.315 16.1539C164.137 15.7617 163.832 15.4373 163.446 15.2308C162.902 14.9893 162.304 14.8836 161.707 14.9231H160.601V20.6923H161.549V20.7692Z" fill="#111111"/>
<path d="M170.164 29.4615C169.342 28.1166 168.956 26.5617 169.057 25V19.1538C169.038 18.0391 169.17 16.9268 169.452 15.8462C169.717 15.0386 170.244 14.3367 170.954 13.8462C171.836 13.3378 172.854 13.0967 173.878 13.1538C175.538 13.1538 176.723 13.5385 177.434 14.3846C178.252 15.5019 178.644 16.8624 178.541 18.2308V18.8462H176.17V18.3077C176.173 17.6635 176.12 17.0201 176.012 16.3846C175.945 15.983 175.718 15.6235 175.379 15.3846C174.935 15.1008 174.408 14.9658 173.878 15C173.311 14.9647 172.75 15.1284 172.297 15.4615C172.111 15.614 171.959 15.8018 171.851 16.0134C171.742 16.2251 171.679 16.4561 171.665 16.6923C171.561 17.38 171.508 18.0741 171.507 18.7692V25.3077C171.449 26.3038 171.61 27.3006 171.981 28.2308C172.297 28.8462 172.93 29.0769 173.878 29.0769C174.252 29.1223 174.632 29.0589 174.97 28.8947C175.307 28.7304 175.587 28.4727 175.775 28.1538C176.192 27.1811 176.381 26.1299 176.328 25.0769V23.8462H174.036V22.0769H178.62V30.7692H177.039L176.802 28.7692C176.595 29.4395 176.163 30.0231 175.576 30.4273C174.989 30.8315 174.28 31.0331 173.562 31C172.909 31.0374 172.256 30.9164 171.663 30.6479C171.07 30.3794 170.555 29.9717 170.164 29.4615Z" fill="#111111"/>
<path d="M183.678 24.6154L179.805 13.3077H182.176L184.942 21.7692L187.629 13.3077H190L186.128 24.6154V30.7692H183.757V24.6154H183.678Z" fill="#111111"/>
</g>
<defs>
<clipPath id="clip0">
<rect width="101" height="18" fill="white" transform="translate(89 13)"/>
</clipPath>
</defs>
</svg>

<svg width="190" height="39" fill="none" xmlns="http://www.w3.org/2000/svg"><path d="M6.07 21.72v-2.26a143.265 143.265 0 0120.17-1.33c0 .6 0 1.21-.06 1.82a25.518 25.518 0 016-1.82A16.67 16.67 0 00.19 21.39l5.88.33zm21.17 3.51c-1.16 1.28-1.39 1.2-1.39 3.45v9.18A16.64 16.64 0 0033.32 24a17.302 17.302 0 00-.32-3.1 33.109 33.109 0 00-5.76 4.33zM6.36 26.72s-3.79-1.44-5.19-1.83A8.541 8.541 0 000 24.61a16.65 16.65 0 008.68 14L6.36 26.72z" fill="#FDC305"/><path d="M26.29 18.12a89.799 89.799 0 00-1.4-16.47S24.75.36 24 1.41a14.22 14.22 0 00-1.2 3.94 70.34 70.34 0 00-12.77.34C9.24 3 7.85 1.75 7.18 2c-.67.25-.72 3.31-.72 3.31l-.33 14.1a143.211 143.211 0 0120.16-1.29z" fill="#F06351"/><path d="M12.41 15c0-.09 1 .68 1.41.92.41.24.61.42.61.59 0 .17-.27.34-.63.34s-.91-.12-1-.27h1.23A8.34 8.34 0 0112.41 15zm7.48.11l-1.09 1.33c0 .06-.17.35.18.3a7.351 7.351 0 001.22-.29c.11 0 .07-.19-.11-.17-.18.02-.69.05-1 .11l.84-1.26s.07-.13-.04-.02zm-3.14 6.09a2.3 2.3 0 001.09-1c.28-.65 0-.91-.44-1a2.43 2.43 0 00-1.74.34c-.39.36-.34.72-.05 1a5.34 5.34 0 001.14.66z" fill="#000"/><path d="M16.35 22.45a1.92 1.92 0 01-.46.6 1.73 1.73 0 01-1 .38 2.15 2.15 0 01-1.47-.43 2.3 2.3 0 01-.53-.44c-.1-.11-.223-.2-.36-.26 0 0 .75 4.1 2.57 4.75 1.82.65 2.14-.75 2.2-1.13a5.61 5.61 0 00-.82-3.23c-.02-.31-.03-.11-.13-.24z" fill="#F06351"/><path d="M14.71 23.59a3.44 3.44 0 01-2.361-1.466.14.14 0 01.031-.154.14.14 0 01.2 0 3.26 3.26 0 002.11 1.3 2.09 2.09 0 001.63-1l.14-.19.1.21s.37.76 1 .8c.63.04 1.05-.41 1.61-1.28a.14.14 0 01.2 0 .15.15 0 01.05.2c-.64 1-1.27 1.44-1.88 1.4a1.55 1.55 0 01-1.12-.76 2.26 2.26 0 01-1.71.94z" fill="#000"/><path d="M26.24 19.92a58.634 58.634 0 00-5.07 5.19A31.633 31.633 0 0115.88 30c-.22-.53-1.62-1.51-1.62-1.51s-3.13-2.14-5.18-3.82a34.139 34.139 0 01-3.13-3l-2-.11a22.57 22.57 0 0012 8.8c.86-.14 3.27-1.86 5.07-3.26a58.13 58.13 0 005.94-5.89 6.15 6.15 0 001.14-2c-1.1.39-1.86.71-1.86.71z" fill="#F06351"/><g clip-path="url(#clip0)" fill="#111"><path d="M90.264 29.538A6.865 6.865 0 0189 25.231v-6.385a6.95 6.95 0 011.186-4.385c.869-1 2.212-1.461 4.188-1.461 1.976 0 3.24.461 4.03 1.308a5.422 5.422 0 011.186 3.769v1.538h-3.873v-1.769a3.691 3.691 0 00-.237-1.538 1.12 1.12 0 00-.456-.473 1.164 1.164 0 00-.65-.143c-.553 0-.948.154-1.106.539a4.846 4.846 0 00-.237 1.692v8.23a3.112 3.112 0 00.316 1.616c.158.385.553.539 1.106.539s.87-.154 1.027-.539c.18-.52.26-1.067.237-1.615v-1.846h3.873v1.538a5.775 5.775 0 01-1.186 3.846c-.79.923-2.133 1.385-4.03 1.385-1.897-.077-3.32-.539-4.11-1.539zm13.989-16.308h4.504l3.32 17.54h-3.636l-.632-3.693h-2.608l-.632 3.692h-3.715l3.399-17.538zm3.24 11.54l-.948-6.847-.949 6.846h1.897zm7.35-8.616h-2.687V13.23h9.404v2.846h-2.687v14.692h-4.03V16.154zm13.909-2.924h6.955v1.847h-4.505v5.77h3.635v1.768h-3.635v6.462h4.505v1.77h-7.034V13.23h.079zm9.009 0h1.739l5.137 11.616V13.231h2.055v17.538h-1.581l-5.216-12v12h-2.134V13.231zm11.302 0h6.954v1.847h-4.504v5.77h3.635v1.768h-3.635v6.462h4.504v1.77h-6.954V13.23zm9.009 0h3.635a6.452 6.452 0 014.031 1.078c.869.692 1.264 1.923 1.264 3.538 0 2.23-.711 3.616-2.212 4.077l2.528 8.77h-2.449l-2.371-8.232h-1.976v8.231h-2.529V13.231h.079zm3.477 7.54a3.523 3.523 0 002.292-.616c.474-.385.711-1.154.711-2.308a4.839 4.839 0 00-.237-1.692 1.974 1.974 0 00-.869-.923 3.69 3.69 0 00-1.739-.308h-1.106v5.77h.948v.076zm8.615 8.692A7.607 7.607 0 01169.057 25v-5.846a12.267 12.267 0 01.395-3.308 3.92 3.92 0 011.502-2c.882-.508 1.9-.75 2.924-.692 1.66 0 2.845.385 3.556 1.23a5.773 5.773 0 011.107 3.847v.615h-2.371v-.538c.003-.645-.05-1.288-.158-1.923a1.533 1.533 0 00-.633-1 2.491 2.491 0 00-1.501-.385 2.417 2.417 0 00-1.581.461 1.734 1.734 0 00-.632 1.231 14.024 14.024 0 00-.158 2.077v6.539a6.816 6.816 0 00.474 2.923c.316.615.949.846 1.897.846.374.045.754-.018 1.092-.182.337-.165.617-.422.805-.741a6.922 6.922 0 00.553-3.077v-1.23h-2.292v-1.77h4.584v8.692h-1.581l-.237-2a3.143 3.143 0 01-1.226 1.658 3.287 3.287 0 01-2.014.573 4.047 4.047 0 01-1.899-.352 3.928 3.928 0 01-1.499-1.186zm13.514-4.847l-3.873-11.307h2.371l2.766 8.461 2.687-8.461H190l-3.872 11.307v6.154h-2.371v-6.154h-.079z"/></g><defs><clipPath id="clip0"><path fill="#fff" transform="translate(89 13)" d="M0 0h101v18H0z"/></clipPath></defs></svg>
